X: 8042
T: Link Him Dodie
R:
B: RSCDS 8-4
D:
Z: John Chambers <jc:trillian.mit.edu>
N:
M: 4/4
L: 1/8
%--------------------
K: A
"A"\
|: "A"Ae e>d c<A c2 | "G"B=g g>d B<=G B<d \
| "A"A/B/c/d/ e>A c<A c2 | "E7"A<a g<b "A"a<A c<e :|
"B"\
| "A"a/g/f/e/ c>a e>a c2 | "G"B=g g>d B<=G B<g \
| "A"a/g/f/e/ c<a e<a c<a | "F#m"A<a c<a "E7"ec c<e ||
| "A"a/g/f/e/ "D"f>d "A"e>d c2 | "G"B=g g>d B<=G B<d \
| "A"A/B/c/d/ e>A c<A c2 | "E7"A<a g<b "A"a<A c<e |]
%%center Book08/08041-Link_Him_Dodie-1.abc

%%sep 1 1 500
%%sep 1 1 500

